lib/icons/locked.svg

<svg width="14" height="15" viewBox="0 0 14 15" fill="none" xmlns="http://www.w3.org/2000/svg">
<path fill-rule="evenodd" clip-rule="evenodd" d="M9 1H5C3.89543 1 3 1.89543 3 3V4H11V3C11 1.89543 10.1046 1 9 1ZM2 3V4C0.895431 4 0 4.89543 0 6V13C0 14.1046 0.89543 15 2 15H12C13.1046 15 14 14.1046 14 13V6C14 4.89543 13.1046 4 12 4V3C12 1.34315 10.6569 0 9 0H5C3.34315 0 2 1.34315 2 3ZM11 5H12C12.5523 5 13 5.44772 13 6V13C13 13.5523 12.5523 14 12 14H2C1.44772 14 1 13.5523 1 13V6C1 5.44772 1.44772 5 2 5H3H11ZM8 9.5C8 10.0523 7.55228 10.5 7 10.5C6.44772 10.5 6 10.0523 6 9.5C6 8.94772 6.44772 8.5 7 8.5C7.55228 8.5 8 8.94772 8 9.5ZM9 9.5C9 10.6046 8.10457 11.5 7 11.5C5.89543 11.5 5 10.6046 5 9.5C5 8.39543 5.89543 7.5 7 7.5C8.10457 7.5 9 8.39543 9 9.5Z" fill="#7A859E"/>
</svg>

<svg width="14" height="15" fill="none" xmlns="http://www.w3.org/2000/svg"><path fill-rule="evenodd" clip-rule="evenodd" d="M9 1H5a2 2 0 0 0-2 2v1h8V3a2 2 0 0 0-2-2ZM2 3v1a2 2 0 0 0-2 2v7a2 2 0 0 0 2 2h10a2 2 0 0 0 2-2V6a2 2 0 0 0-2-2V3a3 3 0 0 0-3-3H5a3 3 0 0 0-3 3Zm9 2h1a1 1 0 0 1 1 1v7a1 1 0 0 1-1 1H2a1 1 0 0 1-1-1V6a1 1 0 0 1 1-1h9ZM8 9.5a1 1 0 1 1-2 0 1 1 0 0 1 2 0Zm1 0a2 2 0 1 1-4 0 2 2 0 0 1 4 0Z" fill="#7A859E"/></svg>
